X:11
T:The First Noel
M:3/4
L:1/4
Z:Kevin Goess 9/9/2004
C:French, 18th Century
Q:120
N:Says the Oxford Book of Carols: "The carol cannot be later than the seventeenth century."
K:D
F/E/ | "D" D>E F/G/ | "A" A2 B/c/ | "D" d c "G" B | "D" A2 "G" B/c/ | "D" d c "G" B |
w:The_ first_ no -el the_ an-gels did say Was to cer-tain poor
"D" A B "A" c | "D" d A "A" G | "D" F2 "A" F/E/ | "D" D>E F/G/ | "A" A2 B/c/ | 
w:shep-hers in fields as they lay; In_ fields_ where_ they lay_
"D" d c "G" B | "A" A2 B/c/ | "D" d c "G" B | "D" A B "A" c | "D" d A "A" G | "D" F2 ||
w:keep-ing their sheep On a cold win-ter's night_ that was_so deep.
F/E/ | "D (Bm)" D>E (F/G/) | "A (F#m)" A2 (d/c/) | "G" B2 B &\
B>c (d/e/) | "D" A3 &\
f2 e | "G" d c B | "A" A B c | "D" d A "G" G | "D" F2 |]
w:No -el,_ No -el, No -el, No-el,  Born is the King_ of Is -ra-el.
W:
W:They look-ed up and saw a star 
W:Shining in the east, behond them far;
W:And to the earth it gave great light,
W:And so it continued both day and night.
W:
W:And by the light of that same star,
W:Three Wise men came from country far,
W:To seek for a King was their intent,
W:And to follow the star wherever it went.
W:
W:
W:This star drew nigh to the northwest, 
W:O'er Bethlemehm it took its rest,
W:And there it did both stop and stay,
W:Right over the place where Jesus lay.
W:
W:Then enter'd in those Wisemen three.
W:Full reverently upon their knee,
W:And offer'd there, in His presence,
W:Their gold and myrrh and frankincense.

